X:1
T:Philander, The
C:Henry Purcell
M:C|
L:1/8
R:Air
K:G
D2|EF G2 BA B2|d4 g4|e2 dB cBAG|A6 D2|
EF G2 BABc|d4 z2f2|gf ed d3^c|d6||
g2|f3 e fg a2|d3d d2cB|d3 d cBAG|F4 z2 cB|
c2e2e2 dc |Bcd2 d3D|E2 cB A3G|G6||

